svgs/sharp-light/crop.svg

<svg xmlns="http://www.w3.org/2000/svg" viewBox="0 0 512 512"><!--! Font Awesome Pro 6.6.0 by @fontawesome - https://fontawesome.com License - https://fontawesome.com/license (Commercial License) Copyright 2024 Fonticons, Inc. --><path d="M128 0l0 16 0 345.4L361.4 128 160 128l0-32 233.4 0 83.3-83.3L488 1.4 510.6 24 499.3 35.3 416 118.6 416 384l80 0 16 0 0 32-16 0-80 0 0 80 0 16-32 0 0-16 0-345.4L150.6 384 352 384l0 32-240 0-16 0 0-16 0-272-80 0L0 128 0 96l16 0 80 0 0-80L96 0l32 0z"/></svg>

<svg xmlns="http://www.w3.org/2000/svg" viewBox="0 0 512 512"><!--! Font Awesome Pro 6.4.0 by @fontawesome - https://fontawesome.com License - https://fontawesome.com/license (Commercial License) Copyright 2023 Fonticons, Inc. --><path d="M128 0V16 361.4L361.4 128 160 128V96l233.4 0 83.3-83.3L488 1.4 510.6 24 499.3 35.3 416 118.6 416 384h80 16v32H496 416v80 16H384V496l0-345.4L150.6 384H352v32H112 96V400 128H16 0V96H16 96V16 0h32z"/></svg>
